X: 1
T: da Laird o' Gulberwick
O: Shetland
R: reel
D: Boys of the Lough
Z: 1997 by John Chambers <jc:trillian.mit.edu>
N:
M: C|
L: 1/8
K: G
|: dc \
| "G"BGFG DGFG | B,DGA B2AB | "C"cBcd edcB | "D7"AGFE D2dc |
| "G"BGFG DGFG | B,DGA B2AB | "C"cBAG "D7"FedA | "G"B2G2 G2 :|
|| Bc \
| "G"dBgB "C"cAae | "D7"fdef "G"g2G2 | "C"cBcd edcB | "D7"AGFE D2Bc |
| "G"dBgB "C"cAae | "D7"fdef "G"g2B2 | "C"cBce "D7"dgfa | "G"g2G2 G2 ||
|| Bc \
| "G"dBgB "C"cAae | "D7"fdef "G"g2G2 | "C"cBcd edcB | "D7"AGFE D2dc |
| "G"BGFG DGFG | B,DGA B2AB | "C"cBAG "D7"FedA | "G"B2G2 G2 |]
